icons/communication/call-call-missed-24.svg

<svg width="24" height="24" viewBox="0 0 24 24" fill="none" xmlns="http://www.w3.org/2000/svg">
<g clip-path="url(#clip0_262_586)">
<path fill-rule="evenodd" clip-rule="evenodd" d="M24 20.0152C24 21.6638 22.6784 23 21.0478 23H19.2126C17.8498 23 16.8131 21.8757 16.8131 20.4395L16.8138 19.1459C16.8138 19.1214 16.8064 19.0992 16.7962 19.0834C16.7865 19.0685 16.7771 19.0629 16.7709 19.0605C15.3616 18.5076 13.7392 18.1858 12 18.1858C10.2605 18.1858 8.63745 18.5069 7.22739 19.059C7.22117 19.0614 7.21186 19.0672 7.20228 19.0818C7.192 19.0977 7.18459 19.1196 7.18459 19.1441L7.18536 20.5717C7.18655 21.9121 6.1112 22.9984 4.78583 22.9985L2.95216 22.9984C1.32166 22.9984 7.06985e-05 21.6622 0 20.0136L1.33393e-06 18.9847C1.33393e-06 17.5508 0.72755 16.2363 1.90249 15.4255C4.4707 13.6545 8.04412 12.5591 12 12.5591C15.9559 12.5591 19.5291 13.6543 22.0973 15.4253C23.2722 16.2361 24 17.5508 24 18.9847L24 20.0152ZM22.5164 20.0152C22.5164 20.8353 21.859 21.5 21.0478 21.5H19.2126C18.7434 21.5 18.2966 21.1244 18.2966 20.4395L18.2974 19.1463C18.2974 18.5171 17.9302 17.9062 17.3073 17.6619C15.7231 17.0405 13.9186 16.6858 12 16.6858C10.0816 16.6858 8.2763 17.0397 6.69132 17.6602C6.06833 17.9045 5.70102 18.5154 5.70102 19.1447L5.70179 20.5729C5.70221 21.0833 5.29252 21.4985 4.78583 21.4984L2.95216 21.4985C2.14097 21.4984 1.48357 20.8337 1.48357 20.0136V18.9846C1.48357 18.0763 1.94396 17.213 2.73858 16.6646C5.02718 15.0864 8.29932 14.0591 12 14.059C15.7006 14.0591 18.9728 15.0865 21.2614 16.6645C22.056 17.213 22.5164 18.0763 22.5164 18.9847V20.0152Z" fill="black"/>
<path d="M11.7531 10.7806L5.50399 4.55724L5.50399 8.22675C5.50756 8.32729 5.49075 8.42751 5.45458 8.52145C5.4184 8.61538 5.3636 8.70109 5.29344 8.77347C5.22328 8.84585 5.1392 8.90341 5.04622 8.94273C4.95323 8.98205 4.85325 9.00231 4.75223 9.00231C4.65121 9.00231 4.55123 8.98205 4.45825 8.94273C4.36526 8.90341 4.28118 8.84585 4.21102 8.77347C4.14086 8.70109 4.08606 8.61538 4.04989 8.52145C4.01371 8.42751 3.9969 8.32729 4.00047 8.22675V2.74913C4.00034 2.55052 4.07943 2.35998 4.22032 2.21942C4.36147 2.0791 4.55279 2.00034 4.75223 2.00046L10.2603 2.00047C10.3613 1.99692 10.4619 2.01365 10.5562 2.04968C10.6506 2.08571 10.7366 2.14028 10.8093 2.21015C10.882 2.28002 10.9398 2.36376 10.9793 2.45636C11.0188 2.54896 11.0391 2.64853 11.0391 2.74913C11.0391 2.84973 11.0188 2.94931 10.9793 3.04191C10.9398 3.13451 10.882 3.21824 10.8093 3.28811C10.7366 3.35798 10.6506 3.41256 10.5562 3.44859C10.4619 3.48461 10.3613 3.50135 10.2603 3.4978H6.56781L12.3084 9.21475L18.7353 3.2421C19.0315 2.96687 19.4934 2.97482 19.7798 3.26008C20.0806 3.55963 20.0721 4.04784 19.7611 4.33686L12.8273 10.7806C12.6862 10.9211 12.4949 11 12.2954 11L12.2902 11L12.285 11C12.0855 11 11.8941 10.9211 11.7531 10.7806Z" fill="black"/>
</g>
<defs>
<clipPath id="clip0_262_586">
<rect width="24" height="24" fill="white"/>
</clipPath>
</defs>
</svg>

<svg xmlns="http://www.w3.org/2000/svg" width="24" height="24"><path fill-rule="evenodd" d="M24 20.015C24 21.664 22.678 23 21.048 23h-1.835c-1.363 0-2.4-1.124-2.4-2.56v-1.294a.117.117 0 00-.017-.063.054.054 0 00-.025-.022c-1.41-.553-3.032-.875-4.771-.875-1.74 0-3.363.32-4.773.873a.055.055 0 00-.025.023.116.116 0 00-.017.062v1.428a2.413 2.413 0 01-2.4 2.427H2.953C1.322 22.998 0 21.661 0 20.013v-1.03c0-1.433.728-2.748 1.902-3.559C4.471 13.655 8.044 12.56 12 12.56c3.956 0 7.53 1.095 10.097 2.866 1.175.811 1.903 2.126 1.903 3.56v1.03zm-1.484 0c0 .82-.657 1.485-1.468 1.485h-1.835c-.47 0-.916-.376-.916-1.06v-1.294c0-.629-.367-1.24-.99-1.484-1.584-.621-3.388-.976-5.307-.976-1.918 0-3.724.354-5.309.974-.623.244-.99.855-.99 1.485v1.428a.92.92 0 01-.915.925H2.952a1.477 1.477 0 01-1.468-1.484v-1.03c0-.908.46-1.771 1.255-2.32C5.027 15.087 8.299 14.06 12 14.06c3.7 0 6.973 1.027 9.261 2.606.795.548 1.255 1.411 1.255 2.32v1.03z"/><path d="M11.753 10.78L5.504 4.558v3.67a.746.746 0 01-.458.716.755.755 0 01-.996-.422.746.746 0 01-.05-.294V2.749A.748.748 0 014.752 2h5.508a.755.755 0 01.78.75.746.746 0 01-.484.699.755.755 0 01-.296.049H6.568l5.74 5.717 6.427-5.973a.754.754 0 011.045.018c.3.3.292.788-.019 1.077l-6.934 6.444a.754.754 0 01-.532.219h-.01c-.2 0-.39-.079-.532-.22z"/></svg>
